X: 852
T: The Sweep's hornpipe
C: anon.
O: Ireland
B: Francis O'Neill: "The Dance Music of Ireland" (1907) no. 852
R: Hornpipe
Z: Transcribed by Frank Nordberg - http://www.musicaviva.com
F: http://www.musicaviva.com/abc/tunes/ireland/oneill-1001/oneill-1001-085
2.abc
M: 2/4
L: 1/16
K: D
a>g|(3faf d>f A>dF>A|D>FA>d f2e>f|g>be>g d>fA>F|G>BA>F E2a>g|\
(3faf d>f A>dF>A|
D>FA>d f2e>f|g>fe>d c>AB>c|d2f2d2::z2|G>FG>A B>cd>e|\
f>gf>e d>cd>B|A2f2 f>ef2|G2e2 e>de2|
G>FG>A B>cd>e|f>gf>e d>cd>B|A>fe>d c>AB>c|d>fe>c d2:|\
|:a>g|(3fgf (3efe (3ded (3cdc|(3BcB (3ABA G2b>a|
(3gag (3fgf (3efe (3ded|(3cdc (3BcB A2a>g|\
(3fgf (3efe (3ded (3cdc|(3BcB (3ABA (3GAG (3FGF|\
E>ge>d c>AB>c| d2f2d2:|
W:
W:
W: From Musica Viva - http://www.musicaviva.com
W: the Internet center for free sheet music downloads.


